app/assets/images/icons/code.svg

<svg width="14" height="14" viewBox="0 0 14 14" xmlns="http://www.w3.org/2000/svg">
<path fill="currentColor" fill-rule="evenodd" clip-rule="evenodd" d="M0 2.25C0 1.65326 0.237053 1.08097 0.65901 0.65901C1.08097 0.237053 1.65326 0 2.25 0L11.25 0C11.8467 0 12.419 0.237053 12.841 0.65901C13.2629 1.08097 13.5 1.65326 13.5 2.25V11.25C13.5 11.8467 13.2629 12.419 12.841 12.841C12.419 13.2629 11.8467 13.5 11.25 13.5H2.25C1.65326 13.5 1.08097 13.2629 0.65901 12.841C0.237053 12.419 0 11.8467 0 11.25L0 2.25ZM10.6875 6.75C10.6874 6.89913 10.628 7.04211 10.5225 7.1475L8.835 8.835C8.7835 8.89026 8.7214 8.93459 8.6524 8.96534C8.5834 8.99608 8.50892 9.01261 8.43339 9.01394C8.35786 9.01528 8.28284 9.00138 8.2128 8.97309C8.14276 8.9448 8.07914 8.90269 8.02572 8.84928C7.97231 8.79586 7.9302 8.73224 7.90191 8.6622C7.87362 8.59216 7.85972 8.51714 7.86106 8.44161C7.86239 8.36608 7.87892 8.2916 7.90966 8.2226C7.94041 8.1536 7.98474 8.0915 8.04 8.04L9.33 6.75L8.04 5.46C7.98474 5.4085 7.94041 5.3464 7.90966 5.2774C7.87892 5.2084 7.86239 5.13392 7.86106 5.05839C7.85972 4.98286 7.87362 4.90784 7.90191 4.8378C7.9302 4.76776 7.97231 4.70414 8.02572 4.65072C8.07914 4.59731 8.14276 4.5552 8.2128 4.52691C8.28284 4.49862 8.35786 4.48472 8.43339 4.48606C8.50892 4.48739 8.5834 4.50392 8.6524 4.53466C8.7214 4.56541 8.7835 4.60974 8.835 4.665L10.5225 6.3525C10.6283 6.4575 10.6875 6.60075 10.6875 6.75ZM2.9775 6.3525C2.87216 6.45797 2.81299 6.60094 2.81299 6.75C2.81299 6.89906 2.87216 7.04203 2.9775 7.1475L4.665 8.835C4.7165 8.89026 4.7786 8.93459 4.8476 8.96534C4.9166 8.99608 4.99108 9.01261 5.06661 9.01394C5.14214 9.01528 5.21716 9.00138 5.2872 8.97309C5.35724 8.9448 5.42086 8.90269 5.47428 8.84928C5.52769 8.79586 5.5698 8.73224 5.59809 8.6622C5.62638 8.59216 5.64028 8.51714 5.63894 8.44161C5.63761 8.36608 5.62108 8.2916 5.59034 8.2226C5.55959 8.1536 5.51526 8.0915 5.46 8.04L4.17 6.75L5.46 5.46C5.51526 5.4085 5.55959 5.3464 5.59034 5.2774C5.62108 5.2084 5.63761 5.13392 5.63894 5.05839C5.64028 4.98286 5.62638 4.90784 5.59809 4.8378C5.5698 4.76776 5.52769 4.70414 5.47428 4.65072C5.42086 4.59731 5.35724 4.5552 5.2872 4.52691C5.21716 4.49862 5.14214 4.48472 5.06661 4.48606C4.99108 4.48739 4.9166 4.50392 4.8476 4.53466C4.7786 4.56541 4.7165 4.60974 4.665 4.665L2.9775 6.3525Z"/>
</svg>

<svg xmlns="http://www.w3.org/2000/svg" width="14" height="14" viewBox="0 0 14 14"><path fill="currentColor" fill-rule="evenodd" d="M0 2.25A2.25 2.25 0 0 1 2.25 0h9a2.25 2.25 0 0 1 2.25 2.25v9a2.25 2.25 0 0 1-2.25 2.25h-9A2.25 2.25 0 0 1 0 11.25zm10.688 4.5c0 .15-.06.292-.165.397L8.835 8.836a.563.563 0 1 1-.795-.795l1.29-1.29-1.29-1.29a.563.563 0 1 1 .795-.795l1.688 1.688a.56.56 0 0 1 .165.397m-7.71-.397a.563.563 0 0 0 0 .795l1.687 1.687a.563.563 0 1 0 .795-.795L4.17 6.75l1.29-1.29a.563.563 0 1 0-.795-.795z" clip-rule="evenodd"/></svg>
